X:18
T:Spiny Norman's Hornpipe
C:Bob Massie
H:1999
N:Another one for Neil Thomson.
M:4/4
L:1/4
Q:1/4=180     %Tempo
K:G
z6 dc |B2 G2 G4 |DG Bd ge dB |c2 A2 A4 |
DF Ad fe dc |B2 G2 G4 |DG Bd gb ag |fg ag fe dc |
B2 G2 G2 dc |B2 d2 d4 |BG Bd bg dB |c2 e2 e4 |
cA ce ag fd |B2 d2 d4 |BG Bd bg dB |^cA ce ag fe |
d^c de d=c BA |B2 G2 G4 |DG Bd ge dB |c2 A2 A4 |
DF Ad fe dc |B2 G2 G4 |DG Bd gb ag |fg ag fe dc |
K:D
B2 G2 G2 FG |A3 B AG FE |Dd cd A2 F2 |GA BG AF DE |
F2 E2 E2 FG |AB AF DF Ad |GA Bd A2 F2 |GD BG AG FE |
F2 D2 D2 FG |A3 B AG FE |Dd cd A2 F2 |GA BG AF DE |
F2 E2 E2 FG |AB AF DF Ad |GA Bd A2 F2 |GE CE A,C AG |
F2 D2 D4 |]
% Output from ABC2Win  Version 2.1 f on 10/29/2001
